;FLAVOR:Marlin
;TIME:48
;Filament used: 0.0886212m
;Layer height: 0.3
;MINX:105.311
;MINY:90.5
;MINZ:0.35
;MAXX:115.464
;MAXY:129.245
;MAXZ:0.95
;Generated with Cura_SteamEngine 4.12.1
M140 S80
M105
M190 S80
M104 S240
M105
M109 S240
M82 ;absolute extrusion mode
G28 ;Home
G1 Z15.0 F2000 ;Move the platform
G92 E0
G92 E0
G1 F1500 E-6.5
;LAYER_COUNT:3
;LAYER:0
M107
M204 S1000
;MESH:test1.stl
G0 F7500 X114.267 Y129.245 Z0.35
;TYPE:WALL-OUTER
G1 F1500 E0
G1 X105.311 Y125.45 E1.41539
G1 X105.311 Y125.222 E1.44856
G1 X109.596 Y127.042 E2.126
G1 X114.267 Y124.959 E2.87021
G1 X114.267 Y125.2 E2.90528
G1 X110.555 Y126.807 E3.49387
G1 X110.56 Y127.469 E3.5902
G1 X114.267 Y129.007 E4.1742
G1 X114.267 Y129.245 E4.20883
G0 F7500 X114.083 Y129.167
G1 F1500 E-2.29117
G0 F7500 X114.612 Y127.89
G0 X114.083 Y123.792
G0 X114.083 Y123.107
G0 X114.064 Y122.474
G1 F1500 E4.20883
G1 X114.064 Y116.982 E5.00799
G1 X105.311 Y116.982 E6.28167
G1 X105.311 Y116.83 E6.30379
G1 X114.311 Y116.83 E7.6134
G1 X114.311 Y122.627 E8.45694
G1 X105.311 Y122.627 E9.76656
G1 X105.311 Y122.474 E9.78883
G1 X114.064 Y122.474 E11.0625
G0 F7500 X114.064 Y122.274
G0 X114.271 Y122.127
G1 F1500 E4.5625
G0 F7500 X113.592 Y117.454
G0 X112.876 Y116.35
G0 X112.152 Y114.536
G0 X112.375 Y113.77
G0 X112.876 Y113.702
G1 F1500 E11.0625
G0 F7500 X112.876 Y113.97
G1 F1500 X113.096 Y113.27 E11.16927
G1 X105.311 Y107.846 E12.54993
G1 X105.311 Y107.62 E12.58282
G1 X114.311 Y107.62 E13.89243
G1 X114.311 Y107.702 E13.90437
G1 X106.703 Y107.702 E15.01143
G1 X106.482 Y108.401 E15.11811
G1 X114.311 Y113.894 E16.50976
G1 X114.311 Y114.052 E16.53276
G1 X105.311 Y114.052 E17.84237
G1 X105.311 Y113.97 E17.85431
G1 X112.876 Y113.97 E18.95511
G0 F7500 X112.936 Y113.78
G0 X111.78 Y112.438
G1 F1500 E12.45511
G0 F7500 X107.798 Y108.752
G0 X107.982 Y108.17
G0 X109.956 Y107.14
G0 X109.956 Y105.35
G0 X109.956 Y104.717
G1 F1500 E18.95511
G1 X114.311 Y104.717 E19.58882
G1 X114.311 Y104.87 E19.61108
G1 X105.311 Y104.87 E20.9207
G1 X105.311 Y104.717 E20.94297
G1 X109.666 Y104.717 E21.57668
G1 X109.666 Y99.225 E22.37583
G1 X105.311 Y99.225 E23.00954
G1 X105.311 Y99.073 E23.03166
G1 X114.311 Y99.073 E24.34128
G1 X114.311 Y99.225 E24.3634
G1 X109.956 Y99.225 E24.99711
G1 X109.956 Y104.717 E25.79626
G0 F7500 X110.156 Y104.717
G0 X109.749 Y104.37
G1 F1500 E19.29626
G0 F7500 X110.428 Y99.697
G0 X114.064 Y98.593
G0 X114.064 Y96.777
G0 X114.064 Y96.145
G1 F1500 E25.79626
G1 X114.064 Y90.652 E26.59557
G1 X105.311 Y90.652 E27.86924
G1 X105.311 Y90.5 E27.89136
G1 X114.311 Y90.5 E29.20098
G1 X114.311 Y96.297 E30.04452
G1 X105.311 Y96.297 E31.35414
G1 X105.311 Y96.145 E31.37625
G1 X114.064 Y96.145 E32.64993
G0 F7500 X114.064 Y95.945
G0 X114.271 Y95.797
G1 F1500 E26.14993
;MESH:NONMESH
G0 F300 X114.271 Y95.797 Z0.65
G0 F7500 X114.267 Y96.777
G0 X114.267 Y97.462
G0 X115.464 Y97.92
G0 X115.464 Y123.78
G0 X115.425 Y125.961
G0 X114.797 Y127.967
G0 X114.267 Y129.245
;TIME_ELAPSED:19.461215
;LAYER:1
M106 S85
;TYPE:WALL-OUTER
;MESH:test1.stl
G1 F1500 E32.64993
G1 X105.311 Y125.45 E33.86312
G1 X105.311 Y125.222 E33.89156
G1 X109.596 Y127.042 E34.47222
G1 X114.267 Y124.959 E35.11011
G1 X114.267 Y125.2 E35.14017
G1 X110.555 Y126.807 E35.64468
G1 X110.56 Y127.469 E35.72725
G1 X114.267 Y129.007 E36.22782
G1 X114.267 Y129.245 E36.2575
G0 F8250 X114.083 Y129.167
G1 F1500 E29.7575
G0 F8250 X114.612 Y127.89
G0 X114.083 Y123.792
G0 X114.083 Y123.107
G0 X114.064 Y122.474
G1 F1500 E36.2575
G1 X114.064 Y116.982 E36.9425
G1 X105.311 Y116.982 E38.03422
G1 X105.311 Y116.83 E38.05318
G1 X114.311 Y116.83 E39.17571
G1 X114.311 Y122.627 E39.89874
G1 X105.311 Y122.627 E41.02127
G1 X105.311 Y122.474 E41.04035
G1 X114.064 Y122.474 E42.13207
G0 F8250 X114.064 Y122.274
G0 X114.271 Y122.127
G1 F1500 E35.63207
G0 F8250 X113.592 Y117.454
G0 X112.876 Y116.35
G0 X112.152 Y114.536
G0 X112.375 Y113.77
G0 X112.876 Y113.702
G1 F1500 E42.13207
G0 F8250 X112.876 Y113.97
G1 F1500 X113.096 Y113.27 E42.22359
G1 X105.311 Y107.846 E43.40701
G1 X105.311 Y107.62 E43.4352
G1 X114.311 Y107.62 E44.55773
G1 X114.311 Y107.702 E44.56796
G1 X106.703 Y107.702 E45.51687
G1 X106.482 Y108.401 E45.60831
G1 X114.311 Y113.894 E46.80116
G1 X114.311 Y114.052 E46.82086
G1 X105.311 Y114.052 E47.94339
G1 X105.311 Y113.97 E47.95362
G1 X112.876 Y113.97 E48.89717
G0 F8250 X112.936 Y113.78
G0 X111.78 Y112.438
G1 F1500 E42.39717
G0 F8250 X107.798 Y108.752
G0 X107.982 Y108.17
G0 X109.956 Y107.14
G0 X109.956 Y105.35
G0 X109.956 Y104.717
G1 F1500 E48.89717
G1 X114.311 Y104.717 E49.44035
G1 X114.311 Y104.87 E49.45943
G1 X105.311 Y104.87 E50.58196
G1 X105.311 Y104.717 E50.60104
G1 X109.666 Y104.717 E51.14422
G1 X109.666 Y99.225 E51.82922
G1 X105.311 Y99.225 E52.3724
G1 X105.311 Y99.073 E52.39135
G1 X114.311 Y99.073 E53.51388
G1 X114.311 Y99.225 E53.53284
G1 X109.956 Y99.225 E54.07602
G1 X109.956 Y104.717 E54.76101
G0 F8250 X110.156 Y104.717
G0 X109.749 Y104.37
G1 F1500 E48.26101
G0 F8250 X110.428 Y99.697
G0 X114.064 Y98.593
G0 X114.064 Y96.777
G0 X114.064 Y96.145
G1 F1500 E54.76101
G1 X114.064 Y90.652 E55.44613
G1 X105.311 Y90.652 E56.53785
G1 X105.311 Y90.5 E56.55681
G1 X114.311 Y90.5 E57.67934
G1 X114.311 Y96.297 E58.40238
G1 X105.311 Y96.297 E59.52491
G1 X105.311 Y96.145 E59.54386
G1 X114.064 Y96.145 E60.63559
G0 F8250 X114.064 Y95.945
G0 X114.271 Y95.797
G1 F1500 E54.13559
;MESH:NONMESH
G0 F300 X114.271 Y95.797 Z0.95
G0 F8250 X114.267 Y96.777
G0 X114.267 Y97.462
G0 X115.464 Y97.92
G0 X115.464 Y123.78
G0 X115.425 Y125.961
G0 X114.797 Y127.967
G0 X114.267 Y129.245
;TIME_ELAPSED:34.708683
;LAYER:2
M106 S170
;TYPE:WALL-OUTER
;MESH:test1.stl
G1 F1500 E60.63559
G1 X105.311 Y125.45 E61.84877
G1 X105.311 Y125.222 E61.87721
G1 X109.596 Y127.042 E62.45787
G1 X114.267 Y124.959 E63.09577
G1 X114.267 Y125.2 E63.12583
G1 X110.555 Y126.807 E63.63033
G1 X110.56 Y127.469 E63.7129
G1 X114.267 Y129.007 E64.21347
G1 X114.267 Y129.245 E64.24316
G0 F9000 X114.083 Y129.167
G1 F1500 E57.74316
G0 F9000 X114.612 Y127.89
G0 X114.083 Y123.792
G0 X114.083 Y123.107
G0 X114.064 Y122.474
G1 F1500 E64.24316
G1 X114.064 Y116.982 E64.92815
G1 X105.311 Y116.982 E66.01987
G1 X105.311 Y116.83 E66.03883
G1 X114.311 Y116.83 E67.16136
G1 X114.311 Y122.627 E67.88439
G1 X105.311 Y122.627 E69.00692
G1 X105.311 Y122.474 E69.02601
G1 X114.064 Y122.474 E70.11773
G0 F9000 X114.064 Y122.274
G0 X114.271 Y122.127
G1 F1500 E63.61773
G0 F9000 X113.592 Y117.454
G0 X112.876 Y116.35
G0 X112.152 Y114.536
G0 X112.375 Y113.77
G0 X112.876 Y113.702
G1 F1500 E70.11773
G0 F9000 X112.876 Y113.97
G1 F1500 X113.096 Y113.27 E70.20925
G1 X105.311 Y107.846 E71.39267
G1 X105.311 Y107.62 E71.42086
G1 X114.311 Y107.62 E72.54339
G1 X114.311 Y107.702 E72.55361
G1 X106.703 Y107.702 E73.50253
G1 X106.482 Y108.401 E73.59396
G1 X114.311 Y113.894 E74.78681
G1 X114.311 Y114.052 E74.80652
G1 X105.311 Y114.052 E75.92905
G1 X105.311 Y113.97 E75.93928
G1 X112.876 Y113.97 E76.88282
G0 F9000 X112.936 Y113.78
G0 X111.78 Y112.438
G1 F1500 E70.38282
G0 F9000 X107.798 Y108.752
G0 X107.982 Y108.17
G0 X109.956 Y107.14
G0 X109.956 Y105.35
G0 X109.956 Y104.717
G1 F1500 E76.88282
G1 X114.311 Y104.717 E77.426
G1 X114.311 Y104.87 E77.44509
G1 X105.311 Y104.87 E78.56762
G1 X105.311 Y104.717 E78.5867
G1 X109.666 Y104.717 E79.12988
G1 X109.666 Y99.225 E79.81487
G1 X105.311 Y99.225 E80.35805
G1 X105.311 Y99.073 E80.37701
G1 X114.311 Y99.073 E81.49954
G1 X114.311 Y99.225 E81.5185
G1 X109.956 Y99.225 E82.06168
G1 X109.956 Y104.717 E82.74667
G0 F9000 X110.156 Y104.717
G0 X109.749 Y104.37
G1 F1500 E76.24667
G0 F9000 X110.428 Y99.697
G0 X114.064 Y98.593
G0 X114.064 Y96.777
G0 X114.064 Y96.145
G1 F1500 E82.74667
G1 X114.064 Y90.652 E83.43179
G1 X105.311 Y90.652 E84.52351
G1 X105.311 Y90.5 E84.54247
G1 X114.311 Y90.5 E85.665
G1 X114.311 Y96.297 E86.38803
G1 X105.311 Y96.297 E87.51056
G1 X105.311 Y96.145 E87.52952
G1 X114.064 Y96.145 E88.62124
G0 F9000 X114.064 Y95.945
G0 X114.271 Y95.797
;TIME_ELAPSED:48.915172
G1 F1500 E82.12124
M140 S0
M204 S500
M107
M104 S0
M140 S0
G92 E0
G1 E-10 F2000
G28 X0 Y0
M84
M82 ;absolute extrusion mode
M104 S0
;End of Gcode
;SETTING_3 {"global_quality": "[general]\\nversion = 4\\nname = Draft #2\\ndefin
;SETTING_3 ition = anet3d_a8\\n\\n[metadata]\\ntype = quality_changes\\nquality_
;SETTING_3 type = draft\\nsetting_version = 19\\n\\n[values]\\nadhesion_type = n
;SETTING_3 one\\nlayer_height = 0.3\\nlayer_height_0 = 0.35\\nmaterial_bed_tempe
;SETTING_3 rature = 80\\n\\n", "extruder_quality": ["[general]\\nversion = 4\\nn
;SETTING_3 ame = Draft #2\\ndefinition = anet3d_a8\\n\\n[metadata]\\ntype = qual
;SETTING_3 ity_changes\\nquality_type = draft\\nsetting_version = 19\\nposition 
;SETTING_3 = 0\\n\\n[values]\\nbottom_layers = 4\\ninfill_angles = [0, 20, 40, 6
;SETTING_3 0, 80, 100, 120, 140, 160 ]\\ninfill_line_distance = 4\\ninfill_patte
;SETTING_3 rn = lines\\ninfill_randomize_start_location = True\\nironing_only_hi
;SETTING_3 ghest_layer = True\\nironing_pattern = concentric\\nline_width = 1\\n
;SETTING_3 material_print_temperature = 240\\nretract_at_layer_change = True\\ns
;SETTING_3 kirt_line_count = 5\\nsupport_z_distance = 0.3\\ntop_layers = 4\\nwal
;SETTING_3 l_line_count = 3\\n\\n"]}
