;FLAVOR:Marlin
;TIME:104
;Filament used: 0.320822m
;Layer height: 0.3
;MINX:101.5
;MINY:101.5
;MINZ:0.35
;MAXX:118.5
;MAXY:118.5
;MAXZ:2.15
;Generated with Cura_SteamEngine 4.12.1
M140 S80
M105
M190 S80
M104 S240
M105
M109 S240
M82 ;absolute extrusion mode
G28 ;Home
G1 Z15.0 F2000 ;Move the platform
G92 E0
G92 E0
G1 F1500 E-6.5
;LAYER_COUNT:7
;LAYER:0
M107
M204 S1000
;MESH:test.stl
G0 F7500 X118.5 Y118.5 Z0.35
;TYPE:WALL-OUTER
G1 F1500 E0
G1 F1146 X101.5 Y118.5 E7.42117
G1 X101.5 Y101.5 E14.84234
G1 X106 Y101.5 E16.80676
G1 X106 Y114.5 E22.48177
G1 X114 Y114.5 E25.97409
G1 X114 Y101.5 E31.6491
G1 X118.5 Y101.5 E33.61352
G1 X118.5 Y118.5 E41.03469
G0 F7500 X118.3 Y118.5
G0 X117.68 Y117.68
G0 X117.284 Y117.284
;TYPE:SKIN
G1 F1146 X115.214 Y115.214 E41.67366
G0 F7500 X113.593 Y115.714
G1 F1146 X115.162 Y117.284 E42.15813
G0 F7500 X113.041 Y117.284
G1 F1146 X111.471 Y115.714 E42.64276
G0 F7500 X110.92 Y117.284
G1 F1146 X109.35 Y115.714 E43.12739
G0 F7500 X108.798 Y117.284
G1 F1146 X107.229 Y115.714 E43.61186
G0 F7500 X106.677 Y117.284
G1 F1146 X105.107 Y115.714 E44.09649
G0 F7500 X104.785 Y115.392
G1 F1146 X102.714 Y113.32 E44.73592
G0 F7500 X104.785 Y113.27
G1 F1146 X102.714 Y111.199 E45.37519
G0 F7500 X104.785 Y111.149
G1 F1146 X102.714 Y109.078 E46.01447
G0 F7500 X104.784 Y109.027
G1 F1146 X102.714 Y106.956 E46.65359
G0 F7500 X104.784 Y106.906
G1 F1146 X102.714 Y104.835 E47.29271
G0 F7500 X104.784 Y104.784
G1 F1146 X102.714 Y102.714 E47.93168
G1 F1500 E41.43168
G0 F7500 X105.222 Y115.278
G0 X114.778 Y115.278
G0 X115.213 Y104.607
G1 F1500 E47.93168
G1 F1146 X117.284 Y106.678 E48.57096
G0 F7500 X115.213 Y106.728
G1 F1146 X117.284 Y108.799 E49.21023
G0 F7500 X115.213 Y108.849
G1 F1146 X117.284 Y110.921 E49.84966
G0 F7500 X115.214 Y110.971
G1 F1146 X117.284 Y113.042 E50.48878
G0 F7500 X115.214 Y113.093
G1 F1146 X117.284 Y115.163 E51.12775
G0 F7500 X117.284 Y104.557
G1 F1146 X115.442 Y102.715 E51.69634
G0 F7500 X114.778 Y115.278
G0 X102.714 Y115.442
G1 F1146 X104.556 Y117.284 E52.26493
G1 F1500 E45.76493
;MESH:NONMESH
G0 F300 X104.556 Y117.284 Z0.65
G0 F7500 X117.68 Y117.68
G1 F1500 E52.26493
G0 F7500 X118.5 Y118.5
;TIME_ELAPSED:17.522993
;LAYER:1
G1 F1500 E45.76493
M106 S85
;TYPE:WALL-OUTER
;MESH:test.stl
G1 F1500 E52.26493
G1 F954 X101.5 Y118.5 E58.62593
G1 X101.5 Y101.5 E64.98693
G1 X106 Y101.5 E66.67072
G1 X106 Y114.5 E71.53502
G1 X114 Y114.5 E74.52843
G1 X114 Y101.5 E79.39273
G1 X118.5 Y101.5 E81.07652
G1 X118.5 Y118.5 E87.43752
G0 F8250 X118.3 Y118.5
G0 X117.68 Y117.68
G0 X116.06 Y117.284
;TYPE:SKIN
G1 F954 X117.284 Y116.06 E87.76137
G0 F8250 X117.284 Y113.939
G1 F954 X113.938 Y117.284 E88.64653
G0 F8250 X113.388 Y115.714
G1 F954 X111.817 Y117.284 E89.06206
G0 F8250 X111.266 Y115.714
G1 F954 X109.696 Y117.284 E89.47745
G0 F8250 X109.145 Y115.714
G1 F954 X107.574 Y117.284 E89.89298
G0 F8250 X107.024 Y115.714
G1 F954 X105.453 Y117.284 E90.30851
G0 F8250 X104.902 Y115.714
G1 F954 X103.332 Y117.284 E90.7239
G0 F8250 X102.715 Y115.78
G1 F954 X104.784 Y113.711 E91.27133
G0 F8250 X102.715 Y113.659
G1 F954 X104.784 Y111.589 E91.81888
G0 F8250 X102.715 Y111.538
G1 F954 X104.784 Y109.468 E92.36643
G0 F8250 X102.715 Y109.416
G1 F954 X104.784 Y107.348 E92.91372
G0 F8250 X102.715 Y107.295
G1 F954 X104.784 Y105.226 E93.46115
G0 F8250 X102.715 Y105.174
G1 F954 X104.784 Y103.105 E94.00857
G0 F8250 X103.053 Y102.714
G1 F954 X102.715 Y103.053 E94.09813
G1 F1500 E87.59813
G0 F8250 X105.222 Y115.278
G0 X114.778 Y115.278
G0 X115.214 Y103.281
G1 F1500 E94.09813
G1 F954 X115.78 Y102.715 E94.24788
G0 F8250 X117.284 Y103.333
G1 F954 X115.214 Y105.402 E94.79544
G0 F8250 X117.284 Y105.454
G1 F954 X115.214 Y107.524 E95.34312
G0 F8250 X117.284 Y107.575
G1 F954 X115.215 Y109.644 E95.89054
G0 F8250 X117.284 Y109.697
G1 F954 X115.215 Y111.766 E96.43797
G0 F8250 X117.284 Y111.818
G1 F954 X115.215 Y113.887 E96.98539
G1 F1500 E90.48539
;MESH:NONMESH
G0 F300 X115.215 Y113.887 Z0.95
G0 F8250 X117.68 Y117.68
G1 F1500 E96.98539
G0 F8250 X118.5 Y118.5
;TIME_ELAPSED:31.932393
;LAYER:2
G1 F1500 E90.48539
M106 S170
;TYPE:WALL-OUTER
;MESH:test.stl
G1 F1500 E96.98539
G1 F964.4 X101.5 Y118.5 E103.34639
G1 X101.5 Y101.5 E109.70739
G1 X106 Y101.5 E111.39118
G1 X106 Y114.5 E116.25548
G1 X114 Y114.5 E119.24889
G1 X114 Y101.5 E124.11319
G1 X118.5 Y101.5 E125.79698
G1 X118.5 Y118.5 E132.15798
G0 F9000 X118.3 Y118.5
G0 X117.68 Y117.68
G0 X117.284 Y117.284
;TYPE:SKIN
G1 F964.4 X115.214 Y115.214 E132.70567
G0 F9000 X113.593 Y115.714
G1 F964.4 X115.162 Y117.284 E133.12093
G0 F9000 X113.041 Y117.284
G1 F964.4 X111.471 Y115.714 E133.53632
G0 F9000 X110.92 Y117.284
G1 F964.4 X109.35 Y115.714 E133.95172
G0 F9000 X108.798 Y117.284
G1 F964.4 X107.229 Y115.714 E134.36698
G0 F9000 X106.677 Y117.284
G1 F964.4 X105.107 Y115.714 E134.78238
G0 F9000 X104.785 Y115.392
G1 F964.4 X102.714 Y113.32 E135.33046
G0 F9000 X104.785 Y113.27
G1 F964.4 X102.714 Y111.199 E135.87841
G0 F9000 X104.785 Y111.149
G1 F964.4 X102.714 Y109.078 E136.42636
G0 F9000 X104.784 Y109.027
G1 F964.4 X102.714 Y106.956 E136.97418
G0 F9000 X104.784 Y106.906
G1 F964.4 X102.714 Y104.835 E137.522
G0 F9000 X104.784 Y104.784
G1 F964.4 X102.714 Y102.714 E138.06969
G1 F1500 E131.56969
G0 F9000 X105.222 Y115.278
G0 X114.778 Y115.278
G0 X115.213 Y104.607
G1 F1500 E138.06969
G1 F964.4 X117.284 Y106.678 E138.61764
G0 F9000 X115.213 Y106.728
G1 F964.4 X117.284 Y108.799 E139.16559
G0 F9000 X115.213 Y108.849
G1 F964.4 X117.284 Y110.921 E139.71367
G0 F9000 X115.214 Y110.971
G1 F964.4 X117.284 Y113.042 E140.26149
G0 F9000 X115.214 Y113.093
G1 F964.4 X117.284 Y115.163 E140.80917
G0 F9000 X117.284 Y104.557
G1 F964.4 X115.442 Y102.715 E141.29654
G0 F9000 X114.778 Y115.278
G0 X102.714 Y115.442
G1 F964.4 X104.556 Y117.284 E141.7839
G1 F1500 E135.2839
;MESH:NONMESH
G0 F300 X104.556 Y117.284 Z1.25
G0 F9000 X117.68 Y117.68
G1 F1500 E141.7839
G0 F9000 X118.5 Y118.5
;TIME_ELAPSED:46.841340
;LAYER:3
G1 F1500 E135.2839
M106 S255
;TYPE:WALL-OUTER
;MESH:test.stl
G1 F1500 E141.7839
G1 F948.6 X101.5 Y118.5 E148.1449
G1 X101.5 Y101.5 E154.5059
G1 X106 Y101.5 E156.18969
G1 X106 Y114.5 E161.05399
G1 X114 Y114.5 E164.0474
G1 X114 Y101.5 E168.9117
G1 X118.5 Y101.5 E170.59549
G1 X118.5 Y118.5 E176.95649
G0 F9000 X118.3 Y118.5
G0 X117.68 Y117.68
G0 X116.06 Y117.284
;TYPE:SKIN
G1 F948.6 X117.284 Y116.06 E177.28034
G0 F9000 X117.284 Y113.939
G1 F948.6 X113.938 Y117.284 E178.1655
G0 F9000 X113.388 Y115.714
G1 F948.6 X111.817 Y117.284 E178.58103
G0 F9000 X111.266 Y115.714
G1 F948.6 X109.696 Y117.284 E178.99642
G0 F9000 X109.145 Y115.714
G1 F948.6 X107.574 Y117.284 E179.41195
G0 F9000 X107.024 Y115.714
G1 F948.6 X105.453 Y117.284 E179.82748
G0 F9000 X104.902 Y115.714
G1 F948.6 X103.332 Y117.284 E180.24287
G0 F9000 X102.715 Y115.78
G1 F948.6 X104.784 Y113.711 E180.79029
G0 F9000 X102.715 Y113.659
G1 F948.6 X104.784 Y111.589 E181.33785
G0 F9000 X102.715 Y111.538
G1 F948.6 X104.784 Y109.468 E181.8854
G0 F9000 X102.715 Y109.416
G1 F948.6 X104.784 Y107.348 E182.43269
G0 F9000 X102.715 Y107.295
G1 F948.6 X104.784 Y105.226 E182.98011
G0 F9000 X102.715 Y105.174
G1 F948.6 X104.784 Y103.105 E183.52754
G0 F9000 X103.053 Y102.714
G1 F948.6 X102.715 Y103.053 E183.6171
G1 F1500 E177.1171
G0 F9000 X105.222 Y115.278
G0 X114.778 Y115.278
G0 X115.214 Y103.281
G1 F1500 E183.6171
G1 F948.6 X115.78 Y102.715 E183.76685
G0 F9000 X117.284 Y103.333
G1 F948.6 X115.214 Y105.402 E184.3144
G0 F9000 X117.284 Y105.454
G1 F948.6 X115.214 Y107.524 E184.86209
G0 F9000 X117.284 Y107.575
G1 F948.6 X115.215 Y109.644 E185.40951
G0 F9000 X117.284 Y109.697
G1 F948.6 X115.215 Y111.766 E185.95693
G0 F9000 X117.284 Y111.818
G1 F948.6 X115.215 Y113.887 E186.50436
G1 F1500 E180.00436
;MESH:NONMESH
G0 F300 X115.215 Y113.887 Z1.55
G0 F9000 X117.68 Y117.68
G1 F1500 E186.50436
G0 F9000 X118.5 Y118.5
;TIME_ELAPSED:61.303913
;LAYER:4
G1 F1500 E180.00436
;TYPE:WALL-OUTER
;MESH:test.stl
G1 F1500 E186.50436
G1 F964.4 X101.5 Y118.5 E192.86536
G1 X101.5 Y101.5 E199.22636
G1 X106 Y101.5 E200.91015
G1 X106 Y114.5 E205.77445
G1 X114 Y114.5 E208.76786
G1 X114 Y101.5 E213.63215
G1 X118.5 Y101.5 E215.31595
G1 X118.5 Y118.5 E221.67695
G0 F9000 X118.3 Y118.5
G0 X117.68 Y117.68
G0 X117.284 Y117.284
;TYPE:SKIN
G1 F964.4 X115.214 Y115.214 E222.22464
G0 F9000 X113.593 Y115.714
G1 F964.4 X115.162 Y117.284 E222.6399
G0 F9000 X113.041 Y117.284
G1 F964.4 X111.471 Y115.714 E223.05529
G0 F9000 X110.92 Y117.284
G1 F964.4 X109.35 Y115.714 E223.47069
G0 F9000 X108.798 Y117.284
G1 F964.4 X107.229 Y115.714 E223.88595
G0 F9000 X106.677 Y117.284
G1 F964.4 X105.107 Y115.714 E224.30135
G0 F9000 X104.785 Y115.392
G1 F964.4 X102.714 Y113.32 E224.84943
G0 F9000 X104.785 Y113.27
G1 F964.4 X102.714 Y111.199 E225.39738
G0 F9000 X104.785 Y111.149
G1 F964.4 X102.714 Y109.078 E225.94533
G0 F9000 X104.784 Y109.027
G1 F964.4 X102.714 Y106.956 E226.49315
G0 F9000 X104.784 Y106.906
G1 F964.4 X102.714 Y104.835 E227.04097
G0 F9000 X104.784 Y104.784
G1 F964.4 X102.714 Y102.714 E227.58865
G1 F1500 E221.08865
G0 F9000 X105.222 Y115.278
G0 X114.778 Y115.278
G0 X115.213 Y104.607
G1 F1500 E227.58865
G1 F964.4 X117.284 Y106.678 E228.1366
G0 F9000 X115.213 Y106.728
G1 F964.4 X117.284 Y108.799 E228.68456
G0 F9000 X115.213 Y108.849
G1 F964.4 X117.284 Y110.921 E229.23264
G0 F9000 X115.214 Y110.971
G1 F964.4 X117.284 Y113.042 E229.78046
G0 F9000 X115.214 Y113.093
G1 F964.4 X117.284 Y115.163 E230.32814
G0 F9000 X117.284 Y104.557
G1 F964.4 X115.442 Y102.715 E230.81551
G0 F9000 X114.778 Y115.278
G0 X102.714 Y115.442
G1 F964.4 X104.556 Y117.284 E231.30287
G1 F1500 E224.80287
;MESH:NONMESH
G0 F300 X104.556 Y117.284 Z1.85
G0 F9000 X117.68 Y117.68
G1 F1500 E231.30287
G0 F9000 X118.5 Y118.5
;TIME_ELAPSED:76.212860
;LAYER:5
G1 F1500 E224.80287
;TYPE:WALL-OUTER
;MESH:test.stl
G1 F1500 E231.30287
G1 F948.6 X101.5 Y118.5 E237.66387
G1 X101.5 Y101.5 E244.02487
G1 X106 Y101.5 E245.70866
G1 X106 Y114.5 E250.57296
G1 X114 Y114.5 E253.56637
G1 X114 Y101.5 E258.43066
G1 X118.5 Y101.5 E260.11446
G1 X118.5 Y118.5 E266.47546
G0 F9000 X118.3 Y118.5
G0 X117.68 Y117.68
G0 X116.06 Y117.284
;TYPE:SKIN
G1 F948.6 X117.284 Y116.06 E266.79931
G0 F9000 X117.284 Y113.939
G1 F948.6 X113.938 Y117.284 E267.68447
G0 F9000 X113.388 Y115.714
G1 F948.6 X111.817 Y117.284 E268.1
G0 F9000 X111.266 Y115.714
G1 F948.6 X109.696 Y117.284 E268.51539
G0 F9000 X109.145 Y115.714
G1 F948.6 X107.574 Y117.284 E268.93092
G0 F9000 X107.024 Y115.714
G1 F948.6 X105.453 Y117.284 E269.34645
G0 F9000 X104.902 Y115.714
G1 F948.6 X103.332 Y117.284 E269.76184
G0 F9000 X102.715 Y115.78
G1 F948.6 X104.784 Y113.711 E270.30926
G0 F9000 X102.715 Y113.659
G1 F948.6 X104.784 Y111.589 E270.85682
G0 F9000 X102.715 Y111.538
G1 F948.6 X104.784 Y109.468 E271.40437
G0 F9000 X102.715 Y109.416
G1 F948.6 X104.784 Y107.348 E271.95166
G0 F9000 X102.715 Y107.295
G1 F948.6 X104.784 Y105.226 E272.49908
G0 F9000 X102.715 Y105.174
G1 F948.6 X104.784 Y103.105 E273.0465
G0 F9000 X103.053 Y102.714
G1 F948.6 X102.715 Y103.053 E273.13607
G1 F1500 E266.63607
G0 F9000 X105.222 Y115.278
G0 X114.778 Y115.278
G0 X115.214 Y103.281
G1 F1500 E273.13607
G1 F948.6 X115.78 Y102.715 E273.28582
G0 F9000 X117.284 Y103.333
G1 F948.6 X115.214 Y105.402 E273.83337
G0 F9000 X117.284 Y105.454
G1 F948.6 X115.214 Y107.524 E274.38106
G0 F9000 X117.284 Y107.575
G1 F948.6 X115.215 Y109.644 E274.92848
G0 F9000 X117.284 Y109.697
G1 F948.6 X115.215 Y111.766 E275.4759
G0 F9000 X117.284 Y111.818
G1 F948.6 X115.215 Y113.887 E276.02333
G1 F1500 E269.52333
;MESH:NONMESH
G0 F300 X115.215 Y113.887 Z2.15
G0 F9000 X117.68 Y117.68
G1 F1500 E276.02333
G0 F9000 X118.5 Y118.5
;TIME_ELAPSED:90.675434
;LAYER:6
G1 F1500 E269.52333
;TYPE:WALL-OUTER
;MESH:test.stl
G1 F1500 E276.02333
G1 F964.4 X101.5 Y118.5 E282.38433
G1 X101.5 Y101.5 E288.74533
G1 X106 Y101.5 E290.42912
G1 X106 Y114.5 E295.29342
G1 X114 Y114.5 E298.28683
G1 X114 Y101.5 E303.15112
G1 X118.5 Y101.5 E304.83492
G1 X118.5 Y118.5 E311.19592
G0 F9000 X118.3 Y118.5
G0 X117.68 Y117.68
G0 X117.284 Y117.284
;TYPE:SKIN
G1 F964.4 X115.214 Y115.214 E311.7436
G0 F9000 X113.593 Y115.714
G1 F964.4 X115.162 Y117.284 E312.15887
G0 F9000 X113.041 Y117.284
G1 F964.4 X111.471 Y115.714 E312.57426
G0 F9000 X110.92 Y117.284
G1 F964.4 X109.35 Y115.714 E312.98966
G0 F9000 X108.798 Y117.284
G1 F964.4 X107.229 Y115.714 E313.40492
G0 F9000 X106.677 Y117.284
G1 F964.4 X105.107 Y115.714 E313.82031
G0 F9000 X104.785 Y115.392
G1 F964.4 X102.714 Y113.32 E314.3684
G0 F9000 X104.785 Y113.27
G1 F964.4 X102.714 Y111.199 E314.91635
G0 F9000 X104.785 Y111.149
G1 F964.4 X102.714 Y109.078 E315.4643
G0 F9000 X104.784 Y109.027
G1 F964.4 X102.714 Y106.956 E316.01212
G0 F9000 X104.784 Y106.906
G1 F964.4 X102.714 Y104.835 E316.55994
G0 F9000 X104.784 Y104.784
G1 F964.4 X102.714 Y102.714 E317.10762
G1 F1500 E310.60762
G0 F9000 X105.222 Y115.278
G0 X114.778 Y115.278
G0 X115.213 Y104.607
G1 F1500 E317.10762
G1 F964.4 X117.284 Y106.678 E317.65557
G0 F9000 X115.213 Y106.728
G1 F964.4 X117.284 Y108.799 E318.20352
G0 F9000 X115.213 Y108.849
G1 F964.4 X117.284 Y110.921 E318.75161
G0 F9000 X115.214 Y110.971
G1 F964.4 X117.284 Y113.042 E319.29943
G0 F9000 X115.214 Y113.093
G1 F964.4 X117.284 Y115.163 E319.84711
G0 F9000 X117.284 Y104.557
G1 F964.4 X115.442 Y102.715 E320.33447
G0 F9000 X114.778 Y115.278
G0 X102.714 Y115.442
G1 F964.4 X104.556 Y117.284 E320.82184
;TIME_ELAPSED:104.563487
G1 F1500 E314.32184
M140 S0
M204 S500
M107
M104 S0
M140 S0
G92 E0
G1 E-10 F2000
G28 X0 Y0
M84
M82 ;absolute extrusion mode
M104 S0
;End of Gcode
;SETTING_3 {"global_quality": "[general]\\nversion = 4\\nname = Draft #2\\ndefin
;SETTING_3 ition = anet3d_a8\\n\\n[metadata]\\ntype = quality_changes\\nquality_
;SETTING_3 type = draft\\nsetting_version = 19\\n\\n[values]\\nadhesion_type = n
;SETTING_3 one\\nlayer_height = 0.3\\nlayer_height_0 = 0.35\\nmaterial_bed_tempe
;SETTING_3 rature = 80\\n\\n", "extruder_quality": ["[general]\\nversion = 4\\nn
;SETTING_3 ame = Draft #2\\ndefinition = anet3d_a8\\n\\n[metadata]\\ntype = qual
;SETTING_3 ity_changes\\nquality_type = draft\\nsetting_version = 19\\nposition 
;SETTING_3 = 0\\n\\n[values]\\nbottom_layers = 4\\ninfill_angles = [0, 20, 40, 6
;SETTING_3 0, 80, 100, 120, 140, 160 ]\\ninfill_line_distance = 4\\ninfill_patte
;SETTING_3 rn = lines\\ninfill_randomize_start_location = True\\nironing_only_hi
;SETTING_3 ghest_layer = True\\nironing_pattern = concentric\\nline_width = 3\\n
;SETTING_3 material_print_temperature = 240\\nretract_at_layer_change = True\\ns
;SETTING_3 kirt_line_count = 5\\ntop_layers = 4\\nwall_line_count = 3\\n\\n"]}
